site/src/frontend/rounds/illegal_search/assets/safe/safe_open_static_draft2.svg

<?xml version="1.0" encoding="UTF-8" standalone="no"?>
<!-- Created with Inkscape (http://www.inkscape.org/) -->

<svg
   width="1920"
   height="1080"
   viewBox="0 0 1920 1080"
   version="1.1"
   id="svg1"
   inkscape:version="1.3.2 (091e20e, 2023-11-25, custom)"
   sodipodi:docname="safe_open_static_draft2.svg"
   xml:space="preserve"
   inkscape:export-filename="safe_closed_static_draft2.png"
   inkscape:export-xdpi="96"
   inkscape:export-ydpi="96"
   xmlns:inkscape="http://www.inkscape.org/namespaces/inkscape"
   xmlns:sodipodi="http://sodipodi.sourceforge.net/DTD/sodipodi-0.dtd"
   xmlns="http://www.w3.org/2000/svg"
   xmlns:svg="http://www.w3.org/2000/svg"><sodipodi:namedview
     id="namedview1"
     pagecolor="#ffffff"
     bordercolor="#000000"
     borderopacity="0.25"
     inkscape:showpageshadow="2"
     inkscape:pageopacity="0.0"
     inkscape:pagecheckerboard="0"
     inkscape:deskcolor="#d1d1d1"
     inkscape:document-units="px"
     inkscape:zoom="0.28315272"
     inkscape:cx="858.19412"
     inkscape:cy="748.71257"
     inkscape:window-width="1379"
     inkscape:window-height="1010"
     inkscape:window-x="112"
     inkscape:window-y="5"
     inkscape:window-maximized="0"
     inkscape:current-layer="svg1"
     showguides="false" /><defs
     id="defs1"><rect
       x="357.73291"
       y="379.58398"
       width="17.064375"
       height="15.108079"
       id="rect154" /><rect
       x="357.73291"
       y="379.58398"
       width="37.146786"
       height="50.257416"
       id="rect155" /><rect
       x="357.73291"
       y="379.58398"
       width="37.146786"
       height="50.257416"
       id="rect156" /><rect
       x="357.73291"
       y="379.58398"
       width="37.146786"
       height="50.257416"
       id="rect157" /><rect
       x="357.73291"
       y="379.58398"
       width="37.146786"
       height="50.257416"
       id="rect158" /><rect
       x="357.73291"
       y="379.58398"
       width="37.146786"
       height="50.257416"
       id="rect158-9" /><rect
       x="357.73291"
       y="379.58398"
       width="37.146786"
       height="50.257416"
       id="rect158-9-2" /><rect
       x="357.73291"
       y="379.58398"
       width="37.146786"
       height="50.257416"
       id="rect159" /><rect
       x="357.73291"
       y="379.58398"
       width="37.146786"
       height="50.257416"
       id="rect160" /><rect
       x="357.73291"
       y="379.58398"
       width="37.146786"
       height="50.257416"
       id="rect161" /><rect
       x="357.73291"
       y="379.58398"
       width="37.146786"
       height="50.257416"
       id="rect21" /><rect
       x="357.73291"
       y="379.58398"
       width="17.064375"
       height="15.108079"
       id="rect22" /><rect
       x="357.73291"
       y="379.58398"
       width="37.146786"
       height="50.257416"
       id="rect23" /><rect
       x="357.73291"
       y="379.58398"
       width="37.146786"
       height="50.257416"
       id="rect24" /><rect
       x="357.73291"
       y="379.58398"
       width="37.146786"
       height="50.257416"
       id="rect25" /><rect
       x="357.73291"
       y="379.58398"
       width="37.146786"
       height="50.257416"
       id="rect26" /><rect
       x="357.73291"
       y="379.58398"
       width="37.146786"
       height="50.257416"
       id="rect27" /><rect
       x="357.73291"
       y="379.58398"
       width="37.146786"
       height="50.257416"
       id="rect28" /><rect
       x="357.73291"
       y="379.58398"
       width="37.146786"
       height="50.257416"
       id="rect29" /><rect
       x="357.73291"
       y="379.58398"
       width="37.146786"
       height="50.257416"
       id="rect30" /></defs><g
     inkscape:label="safe outer area"
     inkscape:groupmode="layer"
     id="layer1"><rect
       style="display:inline;fill:#3a3f47;fill-opacity:1;stroke:none;stroke-width:2.63442;stroke-linejoin:round;stroke-dasharray:none;stroke-opacity:1"
       id="rect56"
       width="1249.9805"
       height="948.39191"
       x="335.00977"
       y="65.804047"
       ry="3.8766212" /><path
       id="rect1"
       style="fill:none;stroke:#000000;stroke-width:3;stroke-linejoin:round;stroke-dasharray:none"
       d="M 335.00978,1014.196 V 65.804025 H 1584.9902 V 1014.196 Z"
       sodipodi:nodetypes="ccccc" /></g><g
     inkscape:groupmode="layer"
     id="g36"
     inkscape:label="safe interior"
     style="display:inline"><g
       id="g35"
       style="fill:none;stroke:#000000;stroke-width:1.00301;stroke-linejoin:round;stroke-dasharray:none"
       transform="matrix(2.991009,0,0,2.991009,188.78299,118.51968)"><path
         d="M 422.8268,17.598661 H 92.863396 V 264.23287 H 422.8268 Z"
         style="fill:none;stroke-width:1.00301;stroke-linejoin:round;stroke-dasharray:none"
         id="path30" /><path
         d="M 422.8268,17.598661 H 92.863396 l 72.261264,58.845646 h 177.75067 z"
         style="fill:#282b30;fill-opacity:1;stroke-width:1.00301;stroke-linejoin:round;stroke-dasharray:none"
         id="path31"
         sodipodi:nodetypes="ccccc" /><path
         d="M 92.863396,17.598661 V 264.23287 L 165.12466,209.30569 V 76.444307 Z"
         style="fill:#23252a;fill-opacity:1;stroke-width:1.00301;stroke-linejoin:round;stroke-dasharray:none"
         id="path32"
         sodipodi:nodetypes="ccccc" /><path
         d="M 422.8268,17.598661 V 264.23287 L 342.87533,209.30569 V 76.444307 Z"
         style="fill:#23252a;fill-opacity:1;stroke-width:1.00301;stroke-linejoin:round;stroke-dasharray:none"
         id="path33"
         sodipodi:nodetypes="ccccc" /><path
         d="M 422.8268,264.23287 H 92.863396 l 72.261264,-54.92718 h 177.75067 z"
         style="fill:#35383f;fill-opacity:1;stroke-width:1.00301;stroke-linejoin:round;stroke-dasharray:none"
         id="path34"
         sodipodi:nodetypes="ccccc" /><path
         d="M 342.87533,76.444307 H 165.12466 V 209.30569 h 177.75067 z"
         style="fill:#32363c;fill-opacity:1;stroke-width:1.00301;stroke-linejoin:round;stroke-dasharray:none"
         id="path35"
         sodipodi:nodetypes="ccccc" /></g></g><g
     inkscape:groupmode="layer"
     id="layer15"
     inkscape:label="open door"
     style="display:inline"><path
       style="fill:#4b515b;fill-opacity:1;stroke:#000000;stroke-width:3;stroke-linejoin:round;stroke-dasharray:none;stroke-opacity:1"
       d="M 1920,1000.0876 1453.4618,908.84257 V 171.15743 L 1920,109.87957"
       id="path256"
       sodipodi:nodetypes="cccc" /><path
       style="fill:#555c67;fill-opacity:1;stroke:#000000;stroke-width:2.9323;stroke-linejoin:round;stroke-dasharray:none;stroke-opacity:1"
       d="M 1920,950.59043 1418.5198,869.49166 V 213.83514 L 1920,159.37122"
       id="path257"
       sodipodi:nodetypes="cccc" /></g></svg>

<?xml version="1.0" encoding="UTF-8"?>
<svg width="1920" height="1080" version="1.1" viewBox="0 0 1920 1080" xml:space="preserve" xmlns="http://www.w3.org/2000/svg"><rect x="335.01" y="65.804" width="1250" height="948.39" ry="3.8766" fill="#3a3f47"/><path d="m335.01 1014.2v-948.39h1250v948.39z" fill="none" stroke="#000" stroke-linejoin="round" stroke-width="3"/><g stroke="#000" stroke-linejoin="round"><g transform="matrix(2.991 0 0 2.991 188.78 118.52)" stroke-width="1.003"><path d="m422.83 17.599h-329.96v246.63h329.96z" fill="none"/><path d="m422.83 17.599h-329.96l72.261 58.846h177.75z" fill="#282b30"/><path d="m92.863 17.599v246.63l72.261-54.927v-132.86z" fill="#23252a"/><path d="m422.83 17.599v246.63l-79.951-54.927v-132.86z" fill="#23252a"/><path d="m422.83 264.23h-329.96l72.261-54.927h177.75z" fill="#35383f"/><path d="m342.88 76.444h-177.75v132.86h177.75z" fill="#32363c"/></g><path d="m1920 1000.1-466.54-91.245v-737.69l466.54-61.278" fill="#4b515b" stroke-width="3"/><path d="m1920 950.59-501.48-81.099v-655.66l501.48-54.464" fill="#555c67" stroke-width="2.9323"/></g></svg>
